svg/free/resize-width.svg

<svg version="1.1" xmlns="http://www.w3.org/2000/svg" width="24" height="24" viewBox="0 0 24 24">
<title>resize-width</title>
<path d="M17.164 18.375h-1.789v-3.375h-6.75v3.375h-1.811l-6.364-6.364 6.386-6.386h1.789v3.375h6.75v-3.375h1.811l6.364 6.364zM2.572 12.011l4.553 4.553v-3.064h9.75v3.042l4.553-4.553-4.553-4.553v3.064h-9.75v-3.042z"></path>
</svg>

<svg xmlns="http://www.w3.org/2000/svg" width="24" height="24" viewBox="0 0 24 24"><path d="M17.164 18.375h-1.789V15h-6.75v3.375H6.814L.45 12.011l6.386-6.386h1.789V9h6.75V5.625h1.811l6.364 6.364zM2.572 12.011l4.553 4.553V13.5h9.75v3.042l4.553-4.553-4.553-4.553V10.5h-9.75V7.458z"/></svg>
